svg/ionicons/arrow-up-left-box.svg

<svg xmlns="http://www.w3.org/2000/svg" width="512" height="512" viewBox="0 0 512 512"><path fill-rule="evenodd" d="M32 180.364V48a16 16 0 0116-16h132.364c8.836 0 16 7.163 16 16s-7.164 16-16 16H86.627l51.128 51.128a58.5 58.5 0 00-22.663 22.591L64 86.627v93.737c0 8.836-7.163 16-16 16s-16-7.164-16-16m83.092-42.645a58.54 58.54 0 00-7.456 28.59v255.146A58.545 58.545 0 00166.182 480h255.273a58.54 58.54 0 0041.397-17.148A58.54 58.54 0 00480 421.455V166.182a58.543 58.543 0 00-58.545-58.546H166.182q-1.213.001-2.378.176a58.54 58.54 0 00-26.049 7.316l169.559 169.558c6.248 6.249 6.248 16.379 0 22.628s-16.379 6.248-22.628 0z" clip-rule="evenodd"/></svg>

<svg width="512" height="512" viewBox="0 0 512 512" xmlns="http://www.w3.org/2000/svg">
<path fill-rule="evenodd" clip-rule="evenodd" d="M32 180.364L32 48C32 43.7565 33.6857 39.6869 36.6862 36.6863C39.6868 33.6857 43.7565 32 48 32H180.364C189.2 32 196.364 39.1635 196.364 48C196.364 56.8365 189.2 64 180.364 64H86.6274L137.755 115.128C133.039 117.747 128.667 121.028 124.784 124.911C120.946 128.749 117.696 133.065 115.092 137.719L64 86.6274L64 180.364C64 189.2 56.8365 196.364 48 196.364C39.1634 196.364 32 189.2 32 180.364ZM115.092 137.719C110.246 146.379 107.636 156.21 107.636 166.309L107.636 421.455C107.636 436.982 113.805 451.873 124.784 462.852C135.763 473.832 150.655 480 166.182 480H421.455C436.982 480 451.873 473.832 462.852 462.852C473.832 451.873 480 436.982 480 421.455V166.182C480 150.655 473.832 135.763 462.852 124.784C451.873 113.805 436.982 107.636 421.455 107.636H166.182C165.374 107.636 164.58 107.696 163.804 107.812C154.606 108.185 145.693 110.72 137.755 115.128L307.314 284.686C313.562 290.935 313.562 301.065 307.314 307.314C301.065 313.562 290.935 313.562 284.686 307.314L115.092 137.719Z" />
</svg>
